svgs/sharp-light/hand-horns.svg

<svg xmlns="http://www.w3.org/2000/svg" viewBox="0 0 384 512"><!--! Font Awesome Pro 6.6.0 by @fontawesome - https://fontawesome.com License - https://fontawesome.com/license (Commercial License) Copyright 2024 Fonticons, Inc. --><path d="M32 0L48 0l80 0 16 0 0 16 0 128 64 0 16 0 0 16 0 16 48 0 0-96 0-16 16 0 80 0 16 0 0 16 0 144 0 16 0 112c0 88.4-71.6 160-160 160l-64 0C71.6 512 0 440.4 0 352l0-96 0-16 16 0 16 0L32 16 32 0zM224 208l0 32 0 16 0 16 0 48 48 0 0-80 0-32-48 0zm-32 64s0 0 0 0l-48 0s0 0 0 0l-32 0s0 0 0 0l-80 0 0 80c0 70.7 57.3 128 128 128l64 0c70.7 0 128-57.3 128-128l0-112 0-16 0-128-48 0 0 80 0 16 0 48 0 96 0 16-16 0-64 0-16 0-16 0-80 0-16 0 0-32 16 0 80 0 0-48zm-80-32l0-80 0-16 0-112L64 32l0 208 48 0zm32 0l48 0 0-48 0-16-48 0 0 64z"/></svg>

<svg xmlns="http://www.w3.org/2000/svg" viewBox="0 0 384 512"><!--! Font Awesome Pro 6.4.0 by @fontawesome - https://fontawesome.com License - https://fontawesome.com/license (Commercial License) Copyright 2023 Fonticons, Inc. --><path d="M32 0H48h80 16V16 144h64 16v16 16h48V80 64h16 80 16V80 224v16V352c0 88.4-71.6 160-160 160H160C71.6 512 0 440.4 0 352V256 240H16 32V16 0zM224 208l0 32v16l0 16 0 48h48V240 208H224zm-32 64l0 0H144v0H112v0H32v80c0 70.7 57.3 128 128 128h64c70.7 0 128-57.3 128-128V240 224 96H304v80 16 48 96 16H288 224 208 192 112 96V320h16 80l0-48zm-80-32V160 144 32H64V240h48zm32 0h48V192 176H144v64z"/></svg>
